64x64/apps/de.haeckerfelix.Shortwave.svg

<svg xmlns="http://www.w3.org/2000/svg" width="64" height="64" version="1.1">
 <path style="opacity:0.2" d="M 8.0722656,20 C 5.8166945,20 4,21.833771 4,24.111328 V 52.888672 C 4,55.166229 5.8166945,57 8.0722656,57 H 41 41.050781 56.927734 C 59.183305,57 61,55.166226 61,52.888672 V 24.111328 C 61,21.833774 59.183305,20 56.927734,20 H 41.050781 41 Z"/>
 <path style="fill:none;stroke:#989898;stroke-width:3;stroke-linecap:round" d="M 15,19 45.5,7.5"/>
 <circle style="fill:#3d3846" cx="15" cy="19" r="3"/>
 <path style="fill:#e5a50a" d="M 8.0718262,19 C 5.8162551,19 4,20.833246 4,23.110803 V 51.889197 C 4,54.166754 5.8162551,56 8.0718262,56 H 41.05 V 19 Z"/>
 <path style="fill:#63452c" d="M 41,19 V 56 H 56.928571 C 59.184142,56 61,54.166445 61,51.888891 V 23.111109 C 61,20.833555 59.184142,19 56.928571,19 Z"/>
 <path style="opacity:0.2" d="m 51,29 a 4,4 0 0 0 -4,4 4,4 0 0 0 4,4 4,4 0 0 0 4,-4 4,4 0 0 0 -4,-4 z M 47.75,40 C 47.3345,40 47,40.3345 47,40.75 v 1.5 c 0,0.4155 0.3345,0.75 0.75,0.75 h 1.5 C 49.6655,43 50,42.6655 50,42.25 v -1.5 C 50,40.3345 49.6655,40 49.25,40 Z m 5,0 C 52.3345,40 52,40.3345 52,40.75 v 1.5 c 0,0.4155 0.3345,0.75 0.75,0.75 h 1.5 C 54.6655,43 55,42.6655 55,42.25 v -1.5 C 55,40.3345 54.6655,40 54.25,40 Z m -5,5 C 47.3345,45 47,45.3345 47,45.75 v 1.5 c 0,0.4155 0.3345,0.75 0.75,0.75 h 1.5 C 49.6655,48 50,47.6655 50,47.25 v -1.5 C 50,45.3345 49.6655,45 49.25,45 Z m 5,0 C 52.3345,45 52,45.3345 52,45.75 v 1.5 c 0,0.4155 0.3345,0.75 0.75,0.75 h 1.5 C 54.6655,48 55,47.6655 55,47.25 v -1.5 C 55,45.3345 54.6655,45 54.25,45 Z"/>
 <rect style="fill:#e5a50a" width="3" height="3" x="47" y="39" rx=".75" ry=".75"/>
 <circle style="fill:#e5a50a" cx="51" cy="32" r="4"/>
 <circle style="fill:#63452c" cx="49.27" cy="30.377" r=".667"/>
 <rect style="fill:#e5a50a" width="3" height="3" x="52" y="39" rx=".75" ry=".75"/>
 <rect style="fill:#e5a50a" width="3" height="3" x="47" y="44" rx=".75" ry=".75"/>
 <rect style="fill:#e5a50a" width="3" height="3" x="52" y="44" rx=".75" ry=".75"/>
 <path style="fill:#63452c" d="m 22.5,24 a 13.5,13.5 0 0 0 -8.476562,3 H 30.96875 A 13.5,13.5 0 0 0 22.5,24 Z M 11.28125,30 A 13.5,13.5 0 0 0 9.7890625,33 H 35.212891 a 13.5,13.5 0 0 0 -1.5,-3 z M 9.0917969,36 A 13.5,13.5 0 0 0 9,37.5 13.5,13.5 0 0 0 9.0996094,39 H 35.908203 A 13.5,13.5 0 0 0 36,37.5 13.5,13.5 0 0 0 35.900391,36 Z m 0.6953125,6 a 13.5,13.5 0 0 0 1.4999996,3 H 33.71875 a 13.5,13.5 0 0 0 1.492188,-3 z M 14.03125,48 A 13.5,13.5 0 0 0 22.5,51 13.5,13.5 0 0 0 30.976562,48 Z"/>
 <path style="opacity:0.2;fill:#f4f4f7" d="M 51 28 A 4 4 0 0 0 47 32 A 4 4 0 0 0 47.035156 32.505859 A 4 4 0 0 1 51 29 A 4 4 0 0 1 54.964844 32.494141 A 4 4 0 0 0 55 32 A 4 4 0 0 0 51 28 z M 47.75 39 C 47.3345 39 47 39.3345 47 39.75 L 47 40.75 C 47 40.3345 47.3345 40 47.75 40 L 49.25 40 C 49.6655 40 50 40.3345 50 40.75 L 50 39.75 C 50 39.3345 49.6655 39 49.25 39 L 47.75 39 z M 52.75 39 C 52.3345 39 52 39.3345 52 39.75 L 52 40.75 C 52 40.3345 52.3345 40 52.75 40 L 54.25 40 C 54.6655 40 55 40.3345 55 40.75 L 55 39.75 C 55 39.3345 54.6655 39 54.25 39 L 52.75 39 z M 47.75 44 C 47.3345 44 47 44.3345 47 44.75 L 47 45.75 C 47 45.3345 47.3345 45 47.75 45 L 49.25 45 C 49.6655 45 50 45.3345 50 45.75 L 50 44.75 C 50 44.3345 49.6655 44 49.25 44 L 47.75 44 z M 52.75 44 C 52.3345 44 52 44.3345 52 44.75 L 52 45.75 C 52 45.3345 52.3345 45 52.75 45 L 54.25 45 C 54.6655 45 55 45.3345 55 45.75 L 55 44.75 C 55 44.3345 54.6655 44 54.25 44 L 52.75 44 z"/>
 <path style="opacity:0.2;fill:#f4f4f7" d="M 8.0722656 19 C 5.8166945 19 4 20.833771 4 23.111328 L 4 24.111328 C 4 21.833771 5.8166945 20 8.0722656 20 L 41 20 L 41.050781 20 L 56.927734 20 C 59.183305 20 61 21.833774 61 24.111328 L 61 23.111328 C 61 20.833774 59.183305 19 56.927734 19 L 41.050781 19 L 41 19 L 8.0722656 19 z"/>
</svg>

<svg xmlns="http://www.w3.org/2000/svg" width="64" height="64"><path style="opacity:.2" d="M8.072 20C5.817 20 4 21.834 4 24.111V52.89C4 55.166 5.817 57 8.072 57H56.928C59.183 57 61 55.166 61 52.889V24.11C61 21.834 59.183 20 56.928 20H41z"/><path style="fill:none;stroke:#989898;stroke-width:3;stroke-linecap:round" d="M15 19 45.5 7.5"/><circle style="fill:#3d3846" cx="15" cy="19" r="3"/><path style="fill:#e5a50a" d="M8.072 19C5.816 19 4 20.833 4 23.11v28.78C4 54.166 5.816 56 8.072 56H41.05V19z"/><path style="fill:#63452c" d="M41 19v37h15.929C59.184 56 61 54.166 61 51.889V23.11C61 20.834 59.184 19 56.929 19z"/><path style="opacity:.2" d="M51 29a4 4 0 0 0-4 4 4 4 0 0 0 4 4 4 4 0 0 0 4-4 4 4 0 0 0-4-4zm-3.25 11a.748.748 0 0 0-.75.75v1.5c0 .415.335.75.75.75h1.5c.416 0 .75-.334.75-.75v-1.5a.748.748 0 0 0-.75-.75zm5 0a.748.748 0 0 0-.75.75v1.5c0 .415.335.75.75.75h1.5c.416 0 .75-.334.75-.75v-1.5a.748.748 0 0 0-.75-.75zm-5 5a.748.748 0 0 0-.75.75v1.5c0 .415.335.75.75.75h1.5c.416 0 .75-.334.75-.75v-1.5a.748.748 0 0 0-.75-.75zm5 0a.748.748 0 0 0-.75.75v1.5c0 .415.335.75.75.75h1.5c.416 0 .75-.334.75-.75v-1.5a.748.748 0 0 0-.75-.75z"/><rect style="fill:#e5a50a" width="3" height="3" x="47" y="39" rx=".75" ry=".75"/><circle style="fill:#e5a50a" cx="51" cy="32" r="4"/><circle style="fill:#63452c" cx="49.27" cy="30.377" r=".667"/><rect style="fill:#e5a50a" width="3" height="3" x="52" y="39" rx=".75" ry=".75"/><rect style="fill:#e5a50a" width="3" height="3" x="47" y="44" rx=".75" ry=".75"/><rect style="fill:#e5a50a" width="3" height="3" x="52" y="44" rx=".75" ry=".75"/><path style="fill:#63452c" d="M22.5 24a13.5 13.5 0 0 0-8.477 3H30.97a13.5 13.5 0 0 0-8.469-3zm-11.219 6a13.5 13.5 0 0 0-1.492 3h25.424a13.5 13.5 0 0 0-1.5-3zm-2.19 6A13.5 13.5 0 0 0 9 37.5a13.5 13.5 0 0 0 .1 1.5h26.808A13.5 13.5 0 0 0 36 37.5a13.5 13.5 0 0 0-.1-1.5zm.696 6a13.5 13.5 0 0 0 1.5 3H33.72a13.5 13.5 0 0 0 1.492-3zm4.244 6a13.5 13.5 0 0 0 8.469 3 13.5 13.5 0 0 0 8.477-3z"/><path style="opacity:.2;fill:#f4f4f7" d="M51 28a4 4 0 0 0-4 4 4 4 0 0 0 .035.506A4 4 0 0 1 51 29a4 4 0 0 1 3.965 3.494A4 4 0 0 0 55 32a4 4 0 0 0-4-4zm-3.25 11a.748.748 0 0 0-.75.75v1c0-.416.334-.75.75-.75h1.5c.416 0 .75.334.75.75v-1a.748.748 0 0 0-.75-.75h-1.5zm5 0a.748.748 0 0 0-.75.75v1c0-.416.334-.75.75-.75h1.5c.416 0 .75.334.75.75v-1a.748.748 0 0 0-.75-.75h-1.5zm-5 5a.748.748 0 0 0-.75.75v1c0-.416.334-.75.75-.75h1.5c.416 0 .75.334.75.75v-1a.748.748 0 0 0-.75-.75h-1.5zm5 0a.748.748 0 0 0-.75.75v1c0-.416.334-.75.75-.75h1.5c.416 0 .75.334.75.75v-1a.748.748 0 0 0-.75-.75h-1.5zM8.072 19C5.817 19 4 20.834 4 23.111v1C4 21.834 5.817 20 8.072 20H56.928C59.183 20 61 21.834 61 24.111v-1C61 20.834 59.183 19 56.928 19H8.072z"/></svg>
